public/icons/tokens/bat.svg

<svg width="256" height="256" viewBox="0 0 256 256" fill="none" xmlns="http://www.w3.org/2000/svg">
  <path d="M255.75 128C255.75 198.554 198.554 255.75 128 255.75C57.4456 255.75 0.25 198.554 0.25 128C0.25 57.4456 57.4456 0.25 128 0.25C198.554 0.25 255.75 57.4456 255.75 128Z" fill="white" stroke="#383D51" stroke-width="0.5"/>
  <path d="M221.259 191.841L128.416 138.679L34.6792 192.061L221.259 191.841Z" fill="#662D91"/>
  <path d="M128.446 31.696L128.416 138.679L221.259 191.841L128.446 31.696Z" fill="#9E1F63"/>
  <path d="M34.6792 192.061L128.416 138.679L128.446 31.696L34.6792 192.061Z" fill="#FF5000"/>
  <path d="M128.225 96.595L89.8975 160.615H166.725L128.225 96.595Z" fill="white" stroke="#FF5000" stroke-miterlimit="10"/>
</svg>

<svg width="256" height="256" fill="none" xmlns="http://www.w3.org/2000/svg"><path d="M255.75 128c0 70.554-57.196 127.75-127.75 127.75S.25 198.554.25 128 57.446.25 128 .25 255.75 57.446 255.75 128Z" fill="#fff" stroke="#383D51" stroke-width=".5"/><path d="m221.259 191.841-92.843-53.162-93.737 53.382 186.58-.22Z" fill="#662D91"/><path d="m128.446 31.696-.03 106.983 92.843 53.162-92.813-160.145Z" fill="#9E1F63"/><path d="m34.68 192.061 93.736-53.382.03-106.983-93.767 160.365Z" fill="#FF5000"/><path d="m128.225 96.595-38.328 64.02h76.828l-38.5-64.02Z" fill="#fff" stroke="#FF5000" stroke-miterlimit="10"/></svg>
